Obsidian/status/22s/desktopconnected.svg

<svg height="22" width="22" xmlns="http://www.w3.org/2000/svg"><path d="m4 4c-.554 0-1 .446-1 1v10c0 .554.446 1 1 1h5c-.554 0-1 .446-1 1v1h6v-1c0-.554-.446-1-1-1h5c.554 0 1-.446 1-1v-10c0-.554-.446-1-1-1zm1 2h12v8h-12z" fill="#d3dae3"/></svg>

<svg xmlns="http://www.w3.org/2000/svg" width="22" height="22" version="1.1">
 <defs>
  <style id="current-color-scheme" type="text/css">
   .ColorScheme-Text { color:#d3dae3; } .ColorScheme-Highlight { color:#5294e2; }
  </style>
 </defs>
 <path style="fill:currentColor" class="ColorScheme-Text" d="M 4,4 C 3.446,4 3,4.446 3,5 V 15 C 3,15.554 3.446,16 4,16 H 9 C 8.446,16 8,16.446 8,17 V 18 H 14 V 17 C 14,16.446 13.554,16 13,16 H 18 C 18.554,16 19,15.554 19,15 V 5 C 19,4.446 18.554,4 18,4 Z M 5,6 H 17 V 14 H 5 Z"/>
</svg>
